cloudphone-mobile/media/svg/media-video.svg

<svg xmlns="http://www.w3.org/2000/svg" xmlns:xlink="http://www.w3.org/1999/xlink" preserveAspectRatio="xMidYMid" width="132" height="148" viewBox="0 0 131 148">
  <defs>
    <style>
      .cls-1 {
        stroke: #c0c9d3;
        stroke-linecap: round;
        stroke-linejoin: round;
        stroke-width: 2px;
        fill: none;
        fill-rule: evenodd;
      }
    </style>
  </defs>
  <g>
    <path d="M6.000,2.000 L126.000,2.000 C128.209,2.000 130.000,3.791 130.000,6.000 L130.000,142.000 C130.000,144.209 128.209,146.000 126.000,146.000 L6.000,146.000 C3.791,146.000 2.000,144.209 2.000,142.000 L2.000,6.000 C2.000,3.791 3.791,2.000 6.000,2.000 Z" class="cls-1"/>
    <path d="M10.000,26.000 L122.000,26.000 L122.000,74.000 L10.000,74.000 L10.000,26.000 Z" class="cls-1"/>
    <circle cx="12" cy="10" r="3" class="cls-1"/>
    <circle cx="22" cy="10" r="3" class="cls-1"/>
    <circle cx="32" cy="10" r="3" class="cls-1"/>
    <path d="M10.000,82.000 L74.000,82.000 L74.000,98.000 L10.000,98.000 L10.000,82.000 Z" class="cls-1"/>
    <path d="M82.000,82.000 L122.000,82.000 L122.000,114.000 L82.000,114.000 L82.000,82.000 Z" class="cls-1"/>
    <path d="M82.000,122.000 L122.000,122.000 L122.000,138.000 L82.000,138.000 L82.000,122.000 Z" class="cls-1"/>
    <path d="M42.000,2.000 L42.000,18.000 " class="cls-1"/>
    <path d="M50.000,10.000 L122.000,10.000 " class="cls-1"/>
    <path d="M2.000,18.000 L130.000,18.000 " class="cls-1"/>
    <path d="M58.000,38.000 L58.000,62.000 L81.000,50.000 L58.000,38.000 Z" class="cls-1"/>
    <path d="M10.000,106.000 L46.000,106.000 " class="cls-1"/>
    <path d="M52.000,106.000 L74.000,106.000 " class="cls-1"/>
    <path d="M10.000,114.000 L74.000,114.000 " class="cls-1"/>
    <path d="M10.000,122.000 L30.000,122.000 " class="cls-1"/>
    <path d="M36.000,122.000 L74.000,122.000 " class="cls-1"/>
    <path d="M10.000,130.000 L46.000,130.000 " class="cls-1"/>
    <path d="M52.000,130.000 L74.000,130.000 " class="cls-1"/>
    <path d="M10.000,138.000 L74.000,138.000 " class="cls-1"/>
  </g>
</svg>

<svg xmlns="http://www.w3.org/2000/svg" preserveAspectRatio="xMidYMid" width="132" height="148" viewBox="0 0 131 148"><defs><style>.cls-1{stroke:#c0c9d3;stroke-linecap:round;stroke-linejoin:round;stroke-width:2px;fill:none;fill-rule:evenodd}</style></defs><path d="M6 2h120a4 4 0 0 1 4 4v136a4 4 0 0 1-4 4H6a4 4 0 0 1-4-4V6a4 4 0 0 1 4-4z" class="cls-1"/><path d="M10 26h112v48H10V26z" class="cls-1"/><circle cx="12" cy="10" r="3" class="cls-1"/><circle cx="22" cy="10" r="3" class="cls-1"/><circle cx="32" cy="10" r="3" class="cls-1"/><path d="M10 82h64v16H10V82zM82 82h40v32H82V82zM82 122h40v16H82v-16zM42 2v16M50 10h72M2 18h128M58 38v24l23-12-23-12zM10 106h36M52 106h22M10 114h64M10 122h20M36 122h38M10 130h36M52 130h22M10 138h64" class="cls-1"/></svg>
